X:591
T:Hungarian Dance
C:John Malchair's Third Collection of Tunes
F:https://www.vwml.org/record/Malchair/3619/p59
F:www.vwml.org/topics/historic-dance-and-tune-books/Malchair
Z:Eric Conrad Jan 2020
M:2/4
L:1/16
K:C % no sharps or flats
P:A
|: efed {d}c2cB | {B}c4 c4 | dcde {g}f2fg | {f}e4 e4 |
efed {d}c2cB | cdcB {B}A2A^G | A^GAc {c}B2BG | A2{^g}a2 A4 :|
P:B
|: .G2 (G4 AB) | {B}c4 c4 | .d2 (d4 ef) | {f}e4 e4 |
efed {d}c2cB | cdcB {B}A2A^G | A^GAc {c}B2BG | A2{^g}a2 A4 :|


